docs/img/readme/regression_equation.svg

<?xml version='1.0' encoding='UTF-8'?>
<!-- This file was generated by dvisvgm 1.15.1 -->
<svg height='23.221pt' version='1.1' viewBox='-0.239051 -0.228215 219.871 23.221' width='219.871pt' xmlns='http://www.w3.org/2000/svg' xmlns:xlink='http://www.w3.org/1999/xlink'>
<defs>
<path d='M14.9183 -6.90128C14.9183 -7.35586 14.7944 -7.56248 14.6291 -7.56248C14.5258 -7.56248 14.3605 -7.41785 14.3398 -7.02526C14.2571 -5.04166 12.8934 -3.90522 11.447 -3.90522C10.1453 -3.90522 9.1535 -4.7937 8.14103 -5.68219C7.08724 -6.63267 6.01279 -7.58315 4.60774 -7.58315C2.35553 -7.58315 1.13644 -5.31027 1.13644 -3.42998C1.13644 -2.76878 1.40505 -2.76878 1.42571 -2.76878C1.653 -2.76878 1.71499 -3.18203 1.71499 -3.24402C1.79764 -5.51689 3.34733 -6.42604 4.60774 -6.42604C5.90948 -6.42604 6.90128 -5.53756 7.91375 -4.64907C8.96753 -3.69859 10.042 -2.74812 11.447 -2.74812C13.6993 -2.74812 14.9183 -5.02099 14.9183 -6.90128Z' id='g0-24'/>
<path d='M6.32273 5.04166C6.32273 5.02099 6.32273 4.97967 6.26074 4.91768C5.31027 3.94654 2.76878 1.30174 2.76878 -5.14497S5.26894 -14.2158 6.28141 -15.2489C6.28141 -15.2696 6.32273 -15.3109 6.32273 -15.3729S6.26074 -15.4762 6.17809 -15.4762C5.95081 -15.4762 4.19449 -13.9472 3.18203 -11.6743C2.1489 -9.38078 1.85963 -7.14923 1.85963 -5.16563C1.85963 -3.67793 2.00426 -1.1571 3.24402 1.50836C4.23582 3.65727 5.93014 5.16563 6.17809 5.16563C6.28141 5.16563 6.32273 5.12431 6.32273 5.04166Z' id='g2-40'/>
<path d='M5.43424 -5.14497C5.43424 -6.63267 5.28961 -9.1535 4.04985 -11.819C3.05805 -13.9679 1.36373 -15.4762 1.11578 -15.4762C1.05379 -15.4762 0.971138 -15.4556 0.971138 -15.3523C0.971138 -15.3109 0.991801 -15.2903 1.01246 -15.2489C2.00426 -14.2158 4.52509 -11.5917 4.52509 -5.16563C4.52509 1.28108 2.02493 3.90522 1.01246 4.93834C0.991801 4.97967 0.971138 5.00033 0.971138 5.04166C0.971138 5.14497 1.05379 5.16563 1.11578 5.16563C1.34306 5.16563 3.09938 3.6366 4.11184 1.36373C5.14497 -0.929813 5.43424 -3.16137 5.43424 -5.14497Z' id='g2-41'/>
<path d='M7.78977 -4.7937H13.2653C13.5546 -4.7937 13.9059 -4.7937 13.9059 -5.14497C13.9059 -5.51689 13.5753 -5.51689 13.2653 -5.51689H7.78977V-10.9925C7.78977 -11.2817 7.78977 -11.633 7.43851 -11.633C7.06658 -11.633 7.06658 -11.3024 7.06658 -10.9925V-5.51689H1.59101C1.30174 -5.51689 0.950476 -5.51689 0.950476 -5.16563C0.950476 -4.7937 1.28108 -4.7937 1.59101 -4.7937H7.06658V0.681863C7.06658 0.971138 7.06658 1.3224 7.41785 1.3224C7.78977 1.3224 7.78977 0.991801 7.78977 0.681863V-4.7937Z' id='g2-43'/>
<path d='M4.23582 -13.8646C4.09118 -14.0918 4.07052 -14.1125 3.67793 -14.1125H1.05379V-13.5753H1.44638C2.27288 -13.5753 2.6448 -13.472 2.70679 -13.4513V-2.02493C2.70679 -1.50836 2.70679 -0.537226 1.05379 -0.537226V0C1.52903 -0.041325 2.39685 -0.041325 2.91342 -0.041325S4.2978 -0.041325 4.77304 0V-0.537226C3.12004 -0.537226 3.12004 -1.50836 3.12004 -2.02493V-13.162C3.26468 -13.0381 3.26468 -12.9967 3.40932 -12.7901L11.0751 -0.24795C11.2197 0 11.2817 0 11.385 0C11.5917 0 11.5917 -0.0619876 11.5917 -0.454575V-12.0876C11.5917 -12.6041 11.5917 -13.5753 13.2447 -13.5753V-14.1125C12.7694 -14.0712 11.9016 -14.0712 11.385 -14.0712S10.0007 -14.0712 9.52542 -14.1125V-13.5753C11.1784 -13.5753 11.1784 -12.6041 11.1784 -12.0876V-2.52083L4.23582 -13.8646Z' id='g2-78'/>
<path d='M7.43851 -5.35159C7.43851 -6.71532 7.43851 -7.43851 6.57068 -8.24435C5.80617 -8.92621 4.91768 -9.13283 4.21515 -9.13283C2.58282 -9.13283 1.40505 -7.85176 1.40505 -6.48803C1.40505 -5.72352 2.02493 -5.68219 2.1489 -5.68219C2.41751 -5.68219 2.89275 -5.84749 2.89275 -6.42604C2.89275 -6.94261 2.50017 -7.16989 2.1489 -7.16989C2.06625 -7.16989 1.96294 -7.14923 1.90095 -7.12857C2.33486 -8.43031 3.45064 -8.80223 4.17383 -8.80223C5.20696 -8.80223 6.34339 -7.89308 6.34339 -6.15743V-5.24828C5.12431 -5.20696 3.65727 -5.04166 2.50017 -4.42178C1.19843 -3.69859 0.826501 -2.66547 0.826501 -1.88029C0.826501 -0.289275 2.68613 0.1653 3.78124 0.1653C4.91768 0.1653 5.97147 -0.475238 6.42604 -1.653C6.46737 -0.743851 7.04592 0.0826501 7.95507 0.0826501C8.38898 0.0826501 9.4841 -0.206625 9.4841 -1.83896V-2.99607H9.11217V-1.8183C9.11217 -0.557888 8.55428 -0.392588 8.28567 -0.392588C7.43851 -0.392588 7.43851 -1.46704 7.43851 -2.37619V-5.35159ZM6.34339 -2.87209C6.34339 -1.07445 5.06232 -0.1653 3.92588 -0.1653C2.89275 -0.1653 2.08691 -0.929813 2.08691 -1.88029C2.08691 -2.50017 2.35553 -3.59528 3.55395 -4.25648C4.54575 -4.81437 5.68219 -4.89702 6.34339 -4.93834V-2.87209Z' id='g2-97'/>
<path d='M3.16137 -14.3398L0.702526 -14.1125V-13.5753C1.92161 -13.5753 2.10758 -13.4513 2.10758 -12.4595V-1.42571C2.10758 -0.640538 2.02493 -0.537226 0.702526 -0.537226V0C1.19843 -0.041325 2.10758 -0.041325 2.62414 -0.041325C3.16137 -0.041325 4.07052 -0.041325 4.56642 0V-0.537226C3.24402 -0.537226 3.16137 -0.619876 3.16137 -1.42571V-14.3398Z' id='g2-108'/>
<path d='M13.9679 -6.28141C13.9679 -7.31453 13.7819 -9.05018 11.3231 -9.05018C9.91801 -9.05018 8.94687 -8.09971 8.57495 -6.98393H8.55428C8.30633 -8.67826 7.08724 -9.05018 5.93014 -9.05018C4.2978 -9.05018 3.45064 -7.78977 3.1407 -6.96327H3.12004V-9.05018L0.681863 -8.8229V-8.28567C1.90095 -8.28567 2.08691 -8.1617 2.08691 -7.16989V-1.42571C2.08691 -0.640538 2.00426 -0.537226 0.681863 -0.537226V0C1.17776 -0.041325 2.08691 -0.041325 2.62414 -0.041325S4.09118 -0.041325 4.58708 0V-0.537226C3.26468 -0.537226 3.18203 -0.619876 3.18203 -1.42571V-5.39292C3.18203 -7.29387 4.33913 -8.71958 5.78551 -8.71958C7.31453 -8.71958 7.47983 -7.35586 7.47983 -6.36406V-1.42571C7.47983 -0.640538 7.39718 -0.537226 6.07478 -0.537226V0C6.57068 -0.041325 7.47983 -0.041325 8.01706 -0.041325S9.4841 -0.041325 9.98 0V-0.537226C8.6576 -0.537226 8.57495 -0.619876 8.57495 -1.42571V-5.39292C8.57495 -7.29387 9.73205 -8.71958 11.1784 -8.71958C12.7075 -8.71958 12.8728 -7.35586 12.8728 -6.36406V-1.42571C12.8728 -0.640538 12.7901 -0.537226 11.4677 -0.537226V0C11.9636 -0.041325 12.8728 -0.041325 13.41 -0.041325S14.877 -0.041325 15.3729 0V-0.537226C14.0505 -0.537226 13.9679 -0.619876 13.9679 -1.42571V-6.28141Z' id='g2-109'/>
<path d='M8.90555 -4.42178C8.90555 -7.06658 6.98393 -9.13283 4.73172 -9.13283S0.557888 -7.06658 0.557888 -4.42178C0.557888 -1.8183 2.4795 0.1653 4.73172 0.1653S8.90555 -1.8183 8.90555 -4.42178ZM4.73172 -0.206625C3.76058 -0.206625 2.93408 -0.785176 2.45884 -1.59101C1.94228 -2.52083 1.88029 -3.67793 1.88029 -4.58708C1.88029 -5.45491 1.92161 -6.52936 2.45884 -7.45917C2.87209 -8.14103 3.67793 -8.80223 4.73172 -8.80223C5.66153 -8.80223 6.44671 -8.28567 6.94261 -7.56248C7.58315 -6.59134 7.58315 -5.22762 7.58315 -4.58708C7.58315 -3.78124 7.54182 -2.54149 6.98393 -1.54969C6.40538 -0.599213 5.51689 -0.206625 4.73172 -0.206625Z' id='g2-111'/>
<path d='M3.09938 -4.87635C3.09938 -6.85996 3.94654 -8.71958 5.49623 -8.71958C5.64087 -8.71958 5.78551 -8.69892 5.93014 -8.63693C5.93014 -8.63693 5.47557 -8.4923 5.47557 -7.95507C5.47557 -7.45917 5.86816 -7.25254 6.17809 -7.25254C6.42604 -7.25254 6.88062 -7.39718 6.88062 -7.97573C6.88062 -8.63693 6.21942 -9.05018 5.51689 -9.05018C3.94654 -9.05018 3.26468 -7.52116 3.05805 -6.79797H3.03739V-9.05018L0.640538 -8.8229V-8.28567C1.85963 -8.28567 2.04559 -8.1617 2.04559 -7.16989V-1.42571C2.04559 -0.640538 1.96294 -0.537226 0.640538 -0.537226V0C1.13644 -0.041325 2.08691 -0.041325 2.62414 -0.041325C3.22335 -0.041325 4.27714 -0.041325 4.83503 0V-0.537226C3.34733 -0.537226 3.09938 -0.537226 3.09938 -1.46704V-4.87635Z' id='g2-114'/>
<path d='M10.4966 -7.78977C10.7652 -7.78977 11.447 -7.78977 11.447 -8.45097C11.447 -8.90555 11.0544 -8.90555 10.6825 -8.90555H6.11611C3.01673 -8.90555 0.785176 -5.45491 0.785176 -3.01673C0.785176 -1.26041 1.92161 0.206625 3.78124 0.206625C6.21942 0.206625 8.88488 -2.41751 8.88488 -5.51689C8.88488 -6.32273 8.69892 -7.10791 8.20302 -7.78977H10.4966ZM3.8019 -0.206625C2.74812 -0.206625 1.9836 -1.01246 1.9836 -2.43818C1.9836 -3.67793 2.72745 -7.78977 5.76484 -7.78977C6.65333 -7.78977 7.64513 -7.35586 7.64513 -5.76484C7.64513 -5.04166 7.31453 -3.306 6.59134 -2.10758C5.84749 -0.888488 4.73172 -0.206625 3.8019 -0.206625Z' id='g1-27'/>
<path d='M4.02919 0.0826501C4.02919 -1.11578 3.6366 -2.00426 2.78944 -2.00426C2.12824 -2.00426 1.79764 -1.46704 1.79764 -1.01246S2.10758 0 2.8101 0C3.07872 0 3.306 -0.0826501 3.49197 -0.268613C3.53329 -0.309938 3.55395 -0.309938 3.57462 -0.309938C3.61594 -0.309938 3.61594 -0.0206625 3.61594 0.0826501C3.61594 0.764513 3.49197 2.10758 2.29354 3.45064C2.06625 3.69859 2.06625 3.73992 2.06625 3.78124C2.06625 3.88455 2.16956 3.98787 2.27288 3.98787C2.43818 3.98787 4.02919 2.45884 4.02919 0.0826501Z' id='g1-59'/>
<path d='M4.77304 -13.8232C4.7937 -13.9059 4.83503 -14.0299 4.83503 -14.1332C4.83503 -14.3398 4.6284 -14.3398 4.58708 -14.3398C4.56642 -14.3398 3.82257 -14.2778 3.45064 -14.2365C3.09938 -14.2158 2.78944 -14.1745 2.41751 -14.1538C1.92161 -14.1125 1.77698 -14.0918 1.77698 -13.7199C1.77698 -13.5133 1.9836 -13.5133 2.19023 -13.5133C3.24402 -13.5133 3.24402 -13.3273 3.24402 -13.1207C3.24402 -12.9761 3.07872 -12.3769 2.99607 -12.0049L2.50017 -10.0213C2.29354 -9.19482 1.11578 -4.50443 1.03313 -4.1325C0.929813 -3.61594 0.929813 -3.26468 0.929813 -2.99607C0.929813 -0.888488 2.10758 0.206625 3.45064 0.206625C5.84749 0.206625 8.327 -2.87209 8.327 -5.86816C8.327 -7.76911 7.25254 -9.11217 5.70286 -9.11217C4.6284 -9.11217 3.65727 -8.22368 3.26468 -7.81043L4.77304 -13.8232ZM3.4713 -0.206625C2.8101 -0.206625 2.08691 -0.702526 2.08691 -2.3142C2.08691 -2.99607 2.1489 -3.38865 2.52083 -4.83503C2.58282 -5.10364 2.91342 -6.42604 2.99607 -6.69466C3.03739 -6.85996 4.25648 -8.69892 5.66153 -8.69892C6.57068 -8.69892 6.98393 -7.78977 6.98393 -6.71532C6.98393 -5.72352 6.40538 -3.38865 5.88882 -2.3142C5.37226 -1.19843 4.42178 -0.206625 3.4713 -0.206625Z' id='g1-98'/>
<path d='M7.10791 -1.26041C7.56248 -0.0206625 8.84356 0.206625 9.62873 0.206625C11.1991 0.206625 12.1289 -1.1571 12.7075 -2.58282C13.1827 -3.78124 13.9472 -6.50869 13.9472 -7.72778C13.9472 -8.9882 13.3067 -9.11217 13.1207 -9.11217C12.6248 -9.11217 12.1702 -8.61627 12.1702 -8.20302C12.1702 -7.95507 12.3149 -7.81043 12.4182 -7.72778C12.6041 -7.54182 13.1414 -6.98393 13.1414 -5.90948C13.1414 -5.20696 12.5628 -3.26468 12.1289 -2.29354C11.5503 -1.03313 10.7858 -0.206625 9.71138 -0.206625C8.55428 -0.206625 8.18236 -1.07445 8.18236 -2.02493C8.18236 -2.62414 8.36832 -3.34733 8.45097 -3.69859L9.3188 -7.16989C9.42211 -7.58315 9.60807 -8.30633 9.60807 -8.38898C9.60807 -8.69892 9.36012 -8.90555 9.05018 -8.90555C8.45097 -8.90555 8.30633 -8.38898 8.18236 -7.89308C7.97573 -7.08724 7.10791 -3.59528 7.02526 -3.1407C6.94261 -2.78944 6.94261 -2.56215 6.94261 -2.10758C6.94261 -1.61168 6.28141 -0.826501 6.26074 -0.785176C6.03346 -0.557888 5.70286 -0.206625 5.06232 -0.206625C3.42998 -0.206625 3.42998 -1.75631 3.42998 -2.10758C3.42998 -2.76878 3.57462 -3.67793 4.50443 -6.13677C4.75238 -6.77731 4.85569 -7.04592 4.85569 -7.45917C4.85569 -8.327 4.23582 -9.11217 3.22335 -9.11217C1.3224 -9.11217 0.557888 -6.11611 0.557888 -5.95081C0.557888 -5.86816 0.640538 -5.76484 0.785176 -5.76484C0.971138 -5.76484 0.991801 -5.84749 1.07445 -6.13677C1.59101 -7.95507 2.39685 -8.69892 3.16137 -8.69892C3.36799 -8.69892 3.69859 -8.67826 3.69859 -8.01706C3.69859 -7.91375 3.69859 -7.47983 3.34733 -6.57068C2.37619 -3.98787 2.16956 -3.1407 2.16956 -2.35553C2.16956 -0.185963 3.94654 0.206625 5.00033 0.206625C5.35159 0.206625 6.28141 0.206625 7.10791 -1.26041Z' id='g1-119'/>
<path d='M9.79403 -8.43031C9.13283 -8.30633 8.88488 -7.81043 8.88488 -7.41785C8.88488 -6.92194 9.27747 -6.75664 9.56675 -6.75664C10.1866 -6.75664 10.6205 -7.29387 10.6205 -7.85176C10.6205 -8.71958 9.62873 -9.11217 8.76091 -9.11217C7.5005 -9.11217 6.79797 -7.87242 6.61201 -7.47983C6.13677 -9.02952 4.85569 -9.11217 4.48377 -9.11217C2.37619 -9.11217 1.26041 -6.40538 1.26041 -5.95081C1.26041 -5.86816 1.34306 -5.76484 1.4877 -5.76484C1.653 -5.76484 1.69433 -5.88882 1.73565 -5.97147C2.43818 -8.26501 3.82257 -8.69892 4.42178 -8.69892C5.35159 -8.69892 5.53756 -7.8311 5.53756 -7.33519C5.53756 -6.88062 5.41358 -6.40538 5.16563 -5.41358L4.4631 -2.58282C4.15317 -1.34306 3.55395 -0.206625 2.45884 -0.206625C2.35553 -0.206625 1.83896 -0.206625 1.40505 -0.475238C2.1489 -0.619876 2.3142 -1.23975 2.3142 -1.4877C2.3142 -1.90095 2.00426 -2.1489 1.61168 -2.1489C1.11578 -2.1489 0.578551 -1.71499 0.578551 -1.05379C0.578551 -0.185963 1.54969 0.206625 2.43818 0.206625C3.42998 0.206625 4.1325 -0.578551 4.56642 -1.42571C4.89702 -0.206625 5.93014 0.206625 6.69466 0.206625C8.80223 0.206625 9.91801 -2.50017 9.91801 -2.95474C9.91801 -3.05805 9.83536 -3.1407 9.71138 -3.1407C9.52542 -3.1407 9.50476 -3.03739 9.44277 -2.87209C8.88488 -1.05379 7.68646 -0.206625 6.75664 -0.206625C6.03346 -0.206625 5.64087 -0.743851 5.64087 -1.59101C5.64087 -2.04559 5.72352 -2.37619 6.05412 -3.73992L6.77731 -6.55002C7.08724 -7.78977 7.78977 -8.69892 8.74025 -8.69892C8.78157 -8.69892 9.36012 -8.69892 9.79403 -8.43031Z' id='g1-120'/>
<path d='M5.43424 2.3142C4.87635 3.09938 4.07052 3.8019 3.05805 3.8019C2.8101 3.8019 1.8183 3.76058 1.50836 2.8101C1.57035 2.83077 1.67366 2.83077 1.71499 2.83077C2.33486 2.83077 2.74812 2.29354 2.74812 1.8183S2.35553 1.17776 2.04559 1.17776C1.71499 1.17776 0.991801 1.42571 0.991801 2.43818C0.991801 3.49197 1.88029 4.21515 3.05805 4.21515C5.12431 4.21515 7.21122 2.3142 7.78977 0.0206625L9.8147 -8.03772C9.83536 -8.14103 9.87669 -8.26501 9.87669 -8.38898C9.87669 -8.69892 9.62873 -8.90555 9.3188 -8.90555C9.13283 -8.90555 8.69892 -8.8229 8.53362 -8.20302L7.00459 -2.12824C6.90128 -1.75631 6.90128 -1.71499 6.73598 -1.4877C6.32273 -0.909151 5.64087 -0.206625 4.64907 -0.206625C3.49197 -0.206625 3.38865 -1.34306 3.38865 -1.90095C3.38865 -3.07872 3.94654 -4.66973 4.50443 -6.15743C4.73172 -6.75664 4.85569 -7.04592 4.85569 -7.45917C4.85569 -8.327 4.23582 -9.11217 3.22335 -9.11217C1.3224 -9.11217 0.557888 -6.11611 0.557888 -5.95081C0.557888 -5.86816 0.640538 -5.76484 0.785176 -5.76484C0.971138 -5.76484 0.991801 -5.84749 1.07445 -6.13677C1.57035 -7.87242 2.35553 -8.69892 3.16137 -8.69892C3.34733 -8.69892 3.69859 -8.69892 3.69859 -8.01706C3.69859 -7.47983 3.4713 -6.88062 3.16137 -6.09544C2.1489 -3.38865 2.1489 -2.70679 2.1489 -2.21089C2.1489 -0.24795 3.55395 0.206625 4.58708 0.206625C5.18629 0.206625 5.93014 0.0206625 6.65333 -0.743851L6.67399 -0.723188C6.36406 0.495901 6.15743 1.30174 5.43424 2.3142Z' id='g1-121'/>
</defs>
<g id='page1' transform='matrix(1.13 0 0 1.13 -63.986 -61.0856)'>
<use x='56.4133' xlink:href='#g1-121' y='69.2765'/>
<use x='72.7222' xlink:href='#g0-24' y='69.2765'/>
<use x='94.4726' xlink:href='#g2-78' y='69.2765'/>
<use x='108.745' xlink:href='#g2-111' y='69.2765'/>
<use x='118.186' xlink:href='#g2-114' y='69.2765'/>
<use x='125.475' xlink:href='#g2-109' y='69.2765'/>
<use x='141.369' xlink:href='#g2-97' y='69.2765'/>
<use x='150.81' xlink:href='#g2-108' y='69.2765'/>
<use x='156.179' xlink:href='#g2-40' y='69.2765'/>
<use x='163.469' xlink:href='#g1-119' y='69.2765'/>
<use x='178.434' xlink:href='#g1-120' y='69.2765'/>
<use x='194.479' xlink:href='#g2-43' y='69.2765'/>
<use x='213.889' xlink:href='#g1-98' y='69.2765'/>
<use x='222.459' xlink:href='#g1-59' y='69.2765'/>
<use x='231.502' xlink:href='#g1-27' y='69.2765'/>
<use x='243.699' xlink:href='#g2-41' y='69.2765'/>
</g>
</svg>

<svg height="31" viewBox="-0.2 -0.2 219.9 23.2" width="293.2" xmlns="http://www.w3.org/2000/svg" xmlns:xlink="http://www.w3.org/1999/xlink"><defs><path d="M9-4.4c0-2.7-2-4.7-4.3-4.7S.6-7.1.6-4.4C.6-1.8 2.5.2 4.7.2S9-1.8 9-4.4zM4.6-.2c-1 0-1.8-.6-2.2-1.4-.6-1-.6-2-.6-3 0-.9 0-2 .6-2.9.4-.6 1.2-1.3 2.2-1.3 1 0 1.7.5 2.2 1.2.7 1 .7 2.4.7 3 0 .8 0 2-.6 3S5.5-.1 4.7-.1z" id="d"/><path d="M15-6.9c0-.5-.2-.7-.4-.7l-.3.6c0 2-1.4 3-2.9 3-1.3 0-2.2-.8-3.3-1.7-1-1-2-1.9-3.5-1.9-2.2 0-3.5 2.3-3.5 4.2 0 .6.3.6.3.6.3 0 .3-.4.3-.4.1-2.3 1.6-3.2 3-3.2 1.2 0 2.2.9 3.2 1.8s2.1 1.9 3.5 1.9C13.7-2.7 15-5 15-7z" id="b"/><path d="M5.4-5.1c0-1.5-.1-4-1.4-6.7a8.6 8.6 0 00-2.9-3.7l-.1.1v.2c1 1 3.5 3.6 3.5 10C4.5 1.3 2 4 1 5V5l.1.2c.2 0 2-1.6 3-3.8 1-2.3 1.3-4.6 1.3-6.5z" id="p"/><path d="M7.8-4.8h5.5c.3 0 .6 0 .6-.3 0-.4-.3-.4-.6-.4H7.8V-11c0-.3 0-.6-.4-.6-.3 0-.3.3-.3.6v5.5H1.6c-.3 0-.6 0-.6.3 0 .4.3.4.6.4H7V.7c0 .3 0 .6.3.6.4 0 .4-.3.4-.6v-5.5z" id="l"/><path d="M4.2-13.9c-.1-.2-.1-.2-.5-.2H1v.5h.3l1.3.1V-2c0 .5 0 1.5-1.6 1.5V0h3.7v-.5C3-.5 3-1.5 3-2v-11.2l.3.4L11.1-.2c.1.2.2.2.3.2.2 0 .2 0 .2-.5V-12c0-.5 0-1.5 1.6-1.5v-.5H9.5v.5c1.7 0 1.7 1 1.7 1.5v9.6L4.2-14z" id="c"/><path d="M7.4-5.4c0-1.3 0-2-.8-2.8-.8-.7-1.7-1-2.4-1a2.7 2.7 0 00-2.8 2.7c0 .8.6.8.7.8.3 0 .8-.1.8-.7 0-.5-.4-.8-.8-.8H2a2.4 2.4 0 012.3-1.6c1 0 2.1 1 2.1 2.6v1a9 9 0 00-3.8.8C1.2-3.7.8-2.7.8-2c0 1.6 1.9 2 3 2S6-.4 6.4-1.6C6.4-.7 7 .1 8 .1c.4 0 1.5-.3 1.5-2V-3H9v1.2c0 1.2-.5 1.4-.8 1.4-.9 0-.9-1-.9-2v-3zm-1 2.5C6.3-1 5-.2 3.8-.2c-1 0-1.8-.7-1.8-1.7 0-.6.3-1.7 1.5-2.4 1-.5 2-.6 2.7-.6v2z" id="g"/><path d="M3.2-14.3l-2.5.2v.5c1.2 0 1.4.1 1.4 1.1v11c0 .9 0 1-1.4 1V0h3.9v-.5c-1.4 0-1.4-.1-1.4-1v-12.8z" id="h"/><path d="M14-6.3c0-1-.2-2.8-2.7-2.8C10-9 9-8 8.6-7 8.3-8.7 7-9 5.9-9 4.3-9 3.5-7.9 3.1-7v-2l-2.4.2v.5c1.2 0 1.4.1 1.4 1.1v5.8C2-.6 2-.5.7-.5V0h3.9v-.5c-1.3 0-1.4-.1-1.4-1v-3.9c0-1.9 1.1-3.3 2.6-3.3s1.7 1.3 1.7 2.3v5c0 .8-.1.9-1.4.9V0H10v-.5c-1.3 0-1.4-.1-1.4-1v-3.9c0-1.9 1.1-3.3 2.6-3.3s1.7 1.3 1.7 2.3v5c0 .8-.1.9-1.4.9V0h3.9v-.5C14-.5 14-.6 14-1.5v-4.8z" id="f"/><path d="M6.3 5c-1-1-3.5-3.7-3.5-10.1s2.5-9.1 3.5-10.1v-.2h-.1c-.2 0-2 1.5-3 3.7-1 2.3-1.3 4.6-1.3 6.5 0 1.5.1 4 1.3 6.7 1 2.2 2.7 3.7 3 3.7l.1-.2z" id="i"/><path d="M3.1-4.9c0-2 .8-3.8 2.4-3.8h.4s-.4.2-.4.7c0 .5.4.7.7.7.2 0 .7-.1.7-.7s-.7-1-1.4-1C4-9 3.3-7.6 3.1-6.9v-2.3l-2.5.3v.5C2-8.3 2-8.2 2-7.2v5.8C2-.6 2-.5.6-.5V0h4.2v-.5c-1.5 0-1.7 0-1.7-1v-3.4z" id="e"/><path d="M10.5-7.8c.3 0 1 0 1-.7 0-.4-.4-.4-.8-.4H6C3.1-9 .8-5.5.8-3 .8-1.3 1.9.2 3.8.2c2.4 0 5-2.6 5-5.7 0-.8-.1-1.6-.6-2.3h2.3zM3.8-.2C2.8-.2 2-1 2-2.4c0-1.3.7-5.4 3.8-5.4.9 0 1.8.4 1.8 2 0 .8-.3 2.5-1 3.7C5.8-1 4.7-.2 3.8-.2z" id="o"/><path d="M4 0C4-1 3.6-2 2.8-2c-.7 0-1 .5-1 1s.3 1 1 1c.3 0 .5 0 .7-.3l.1.4c0 .7-.1 2-1.3 3.4l-.2.3s0 .2.2.2C2.4 4 4 2.5 4 0z" id="n"/><path d="M4.8-13.8v-.3c0-.2-.2-.2-.2-.2H3.5l-1 .1c-.6 0-.7.1-.7.5 0 .2.2.2.4.2 1 0 1 .2 1 .4L3-12l-.5 2L1-4.1V-3C1-.9 2 .2 3.4.2c2.3 0 4.8-3 4.8-6 0-2-1-3.3-2.6-3.3-1 0-2 .9-2.4 1.3l1.5-6zM3.5-.2C2.8-.2 2-.7 2-2.3c0-.7 0-1 .4-2.5L3-6.7c0-.2 1.3-2 2.7-2 .9 0 1.3 1 1.3 2s-.6 3.3-1.1 4.4c-.5 1.1-1.5 2-2.4 2z" id="m"/><path d="M7.1-1.3C7.6 0 8.8.2 9.6.2c1.6 0 2.5-1.4 3.1-2.8A20 20 0 0014-7.7c0-1.3-.6-1.4-.8-1.4-.5 0-1 .5-1 .9 0 .2.2.4.3.5.2.2.7.7.7 1.8 0 .7-.5 2.6-1 3.6-.5 1.3-1.3 2-2.4 2C8.6-.2 8.2-1 8.2-2c0-.6.2-1.3.3-1.7l.8-3.5.3-1.2c0-.3-.2-.5-.5-.5-.6 0-.8.5-1 1-.1.8-1 4.3-1 4.8-.2.3-.2.5-.2 1S6.3-.8 6.3-.8c-.3.2-.6.6-1.2.6-1.7 0-1.7-1.6-1.7-2 0-.6.2-1.5 1.1-4 .3-.6.4-.8.4-1.3 0-.8-.7-1.6-1.7-1.6C1.3-9.1.6-6.1.6-6c0 .1 0 .2.2.2S1-5.8 1-6C1.6-8 2.4-8.7 3-8.7c.3 0 .6 0 .6.7 0 0 0 .5-.4 1.4C2.3-4 2.2-3 2.2-2.4 2.2-.2 3.9.2 5 .2c.4 0 1.3 0 2.1-1.5z" id="j"/><path d="M9.8-8.4c-.7 0-1 .6-1 1 0 .5.5.6.8.6.6 0 1-.5 1-1 0-1-1-1.3-1.8-1.3-1.3 0-2 1.2-2.2 1.6A2.1 2.1 0 004.5-9C2.4-9.1 1.3-6.4 1.3-6c0 .1 0 .2.2.2s.2 0 .2-.2c.7-2.3 2.1-2.7 2.7-2.7 1 0 1.1.9 1.1 1.4 0 .4 0 .9-.3 1.9l-.7 2.8c-.3 1.3-1 2.4-2 2.4-.1 0-.7 0-1-.3a1 1 0 00.8-1c0-.4-.3-.6-.7-.6a1 1 0 00-1 1C.6 0 1.6.2 2.4.2c1 0 1.7-.8 2.2-1.6a2.2 2.2 0 002 1.6C8.9.2 10-2.5 10-3L9.7-3c-.2 0-.2 0-.3.2C9-1 7.7-.2 6.8-.2 6-.2 5.6-.7 5.6-1.6l.5-2.1.7-2.9c.3-1.2 1-2.1 2-2.1 0 0 .6 0 1 .3z" id="k"/><path d="M5.4 2.3c-.5.8-1.3 1.5-2.3 1.5-.3 0-1.3 0-1.6-1h.2c.6 0 1-.5 1-1s-.3-.6-.7-.6c-.3 0-1 .2-1 1.2s.9 1.8 2 1.8c2.1 0 4.2-1.9 4.8-4.2l2-8v-.4c0-.3-.2-.5-.5-.5-.2 0-.6 0-.8.7L7-2.2c-.1.4-.1.5-.3.7-.4.6-1 1.3-2 1.3C3.4-.2 3.3-1.3 3.3-2c0-1.2.5-2.8 1.1-4.3.2-.6.4-.8.4-1.3 0-.8-.7-1.6-1.7-1.6C1.3-9.1.6-6.1.6-6c0 .1 0 .2.2.2S1-5.8 1-6C1.6-8 2.4-8.7 3-8.7c.2 0 .6 0 .6.7 0 .5-.2 1.1-.5 1.9-1 2.7-1 3.4-1 3.9C2.1-.2 3.5.2 4.5.2c.6 0 1.3-.2 2-1-.2 1.3-.4 2.1-1.2 3.1z" id="a"/></defs><g transform="matrix(1.13 0 0 1.13 -64 -61)"><use x="56.4" xlink:href="#a" y="69.3"/><use x="72.7" xlink:href="#b" y="69.3"/><use x="94.5" xlink:href="#c" y="69.3"/><use x="108.7" xlink:href="#d" y="69.3"/><use x="118.2" xlink:href="#e" y="69.3"/><use x="125.5" xlink:href="#f" y="69.3"/><use x="141.4" xlink:href="#g" y="69.3"/><use x="150.8" xlink:href="#h" y="69.3"/><use x="156.2" xlink:href="#i" y="69.3"/><use x="163.5" xlink:href="#j" y="69.3"/><use x="178.4" xlink:href="#k" y="69.3"/><use x="194.5" xlink:href="#l" y="69.3"/><use x="213.9" xlink:href="#m" y="69.3"/><use x="222.5" xlink:href="#n" y="69.3"/><use x="231.5" xlink:href="#o" y="69.3"/><use x="243.7" xlink:href="#p" y="69.3"/></g></svg>
